static/img/common/ico-clue-wifi.svg

<svg width="22" height="17" viewBox="0 0 22 17" fill="none" xmlns="http://www.w3.org/2000/svg">
<path d="M19.4175 5.71682C16.9997 3.62746 13.9116 2.47109 10.7053 2.47109C7.49901 2.47109 4.41097 3.62746 1.9931 5.71682L0.705322 4.23193C3.47799 1.8272 7.02595 0.5 10.7053 0.5C14.3847 0.5 17.9327 1.8272 20.7053 4.23193L19.4175 5.71682Z" fill="white" stroke="currentColor" stroke-miterlimit="10"/>
<path d="M16.4346 9.1465C14.8446 7.76674 12.8078 7.01772 10.7053 7.01772C8.60282 7.01772 6.56603 7.77988 4.97601 9.1465L3.68823 7.66161C5.63304 5.97961 8.12976 5.04663 10.7053 5.04663C13.2809 5.04663 15.7776 5.97961 17.7224 7.66161L16.4346 9.1465Z" fill="white" stroke="currentColor" stroke-miterlimit="10"/>
<path d="M10.7053 10.6313C9.41755 10.6313 8.2349 11.1044 7.34134 11.8928L10.863 15.4145L14.0693 11.8928C13.1626 11.1044 11.9931 10.6313 10.7053 10.6313Z" fill="white" stroke="currentColor" stroke-miterlimit="10"/>
</svg>

<svg xmlns="http://www.w3.org/2000/svg" width="22" height="17" fill="none" viewBox="0 0 22 17"><path fill="#fff" stroke="currentColor" stroke-miterlimit="10" d="M19.418 5.717a13.32 13.32 0 0 0-8.713-3.246 13.32 13.32 0 0 0-8.712 3.246L.705 4.232a15.26 15.26 0 0 1 10-3.732c3.68 0 7.228 1.327 10 3.732z"/><path fill="#fff" stroke="currentColor" stroke-miterlimit="10" d="M16.435 9.147a8.74 8.74 0 0 0-5.73-2.13c-2.102 0-4.139.763-5.729 2.13L3.688 7.661a10.74 10.74 0 0 1 7.017-2.615c2.576 0 5.073.933 7.017 2.615zM10.705 10.631a5.07 5.07 0 0 0-3.364 1.262l3.522 3.521 3.206-3.521a5.1 5.1 0 0 0-3.364-1.262Z"/></svg>
